X: 39513
T: Taureen Derby
R: polka
M: 2/4
K: Edorian
|:d/c/|BE EF|BE G/F/E|D>E FA|DE Fd/c/|
BE EF|BE FE|D>E FA|FE E:|
|:^d|ef/e/ dB|eg/e/ dB|A>F dF|A/B/c/d/ e^d|
ef/e/ dB|eg/e/ dB|A>F dF|FE E:|

